X:1
T:E nato'il grand'Iddeo
T:Giovanni Animucci
T:Source : Secondo libro delle Laude spirituali a tre et a quattro voci---Roma---A.Gardano---1583. Editor : André Vierendeels (25/11/17). Notes : Original clefs : G2, C1, F3 Editorial accidentals above the staff Music compiled by Francisco Soto de Langa
T:E nato'il grand'Iddeo
T:©
T:©
C:Giovanni Animucci
Z:©
%%score [ 1 2 3 ]
L:1/8
Q:1/4=120
M:2/2
K:F
V:1 treble nm="Soprano" snm="S"
V:2 treble nm="Alto" snm="A"
V:3 treble-8 nm="Tenor" snm="T"
V:1
"^1)" G4 G2 A2 | B4 c4 | d8 | d4 z2 d2 | d2 A2 d2 f2 | e4 d4 | z2 d2 c2 A2 | B2 B2 c4 | d4 z2 d2 | %9
w: E na- to'il|grand' Id-|di-|o o-|gni cor si ral-|le- gri,|e na- to'il|si- gnor mi-|o, fu-|
w: O no- va|me- ra-|vi-|glia ch'e'il|cien lar- go dis-|pen- sa,|vil ser- vo|si- mi- gli-|a il|
 f3 e d2 cB | c4 B4 | d4 e4 | e2 e4 e2 | f4 e4 | g4 f2 f2 | e4 d4 | c4 B2 B2 | A2 G2 B3 B | %18
w: gi- te'o pen- si- er|e- gri,|gio- ia,|le- ti- tia'è|can- to'in|cie- lo è'in|ter- ra'in|cie- lo è'in|ter- ra: san to,|
w: Re di glo- ri- a'im-|men- sa,|e'il ric-|co Tro- no'au-|gu- sto|e' po- co|fie- no|nel pre- se-|pi- o'an- gu- sto,|
 A2 G2 A4 | G8 :| %20
w: san to, san-|to|
w: an- * gu-|sto.|
V:2
"^2)" z8 | z8 |"^1)" z2 B2 B2 A2 | B2 d3 c B2 | A3 G FD d2- |"^-natural" dc/B/ c2 d4 | %6
w: ||O- gni cor|si ral- le- gri,|si _ _ _ ral-|* * * le- gri,|
w: ||al ca- du-|co'e con- for- me|ha pre- so'il mio mor-|* * * ta- le|
 z2 B2 G2 F2 | G2 B4 A2 | B4 z2 B2 | A3 A B2 G2- | G2 ^F2 G4 | B4 c4 | G2 G4 c2- | c2 B2 c2 c2 | %14
w: e na- to'il|si- gnor mi-|o, fu-|gi- te'o pen- sier|_ e- gri,|gio- ia,|le- ti- tia'è|_ can- to'in cie-|
w: per far- me|de- i- for-|me par|me, per tut- ti'è|_ na- to,|per me,|per me, per|_ tut- ti'e na-|
 G2 B2 ABAB | c2 G2 D2 F2 | E2 E2 G4 | F2 D4 G2 | ^F2 G4 F2 | G8 :| %20
w: lo'e in ter- * * *|ra'in cie- lo'e in|ter- ra'en ter-|ra: san- to,|san- to, san-|to.|
w: to, l'an- gel _ _ _|_ di Dio, che|to- glie'o- gni|pec- ca- to,|pec- ca- *|to.|
V:3
"^L'eterno et immortale""^Dunque il mio creatore""^3)""^4)" z8 | z8 |"^1)" z2 G2 G2 D2 | %3
w: ||O- gni cor|
w: ||tan- to m'a-|
 G2 B2 A2 G2 | D6 D2 | A4 D4 | z2 B,2 C2 D2 | G2 G2 F4 | B4 z2 G2 | d3 c B2 c2 | A4 G4 | G4 C4 | %12
w: si ral- le- gri,|si ral-|le- gri,|e na- to'il|si- gnor mi-|o, fu-|gi- te'o pen- sier|e- gri,|gio- ia,|
w: ma et m'ap- prez-|za? O|du- ro,|o du- ro'e|as- pro co-|re, spez-|za- ti de dol-|cez- za,|gio- ia,|
 C2 C4 C2 | D4 C4 | z2 G2 D2 F2 | CDEF G2 d2 | A2 c2 GABc | d2 G4 G2 | D2 _E2 D4 | G8 :| %20
w: le- ti- tia'è|can- to,|in cie- lo'e'in|ter- * * * ra, in|cie- lo'e'in ter- * * *|ra: san- to,|san- to, san-|to.|
w: le- ti- tia'è|can- to,|in cie- lo'e'in|ter- * * * ra, in|cie- lo'e'in ter- * * *|ra: san- to,|san- to, san-|to.|

